**harm	**harte	**timestamp	**phrase	**leadinstrument	**kern
*M4/4	*M4/4	*	*	*	*
*D:	*D:	*	*	*	*D:
1r;	N	0	.	r	1r;
=1	=1	=1	=1	=1	=1
*>A_verse	*>A_verse	*>A_verse	*>A_verse	*>A_verse	*>A_verse
1Im7	D:7	2.057	newline	voice	1D 1f# 1a 1cc#
=2	=2	=2	=2	=2	=2
1Im7	D:7	5.704	.	voice	1D 1f# 1a 1cc#
=3	=3	=3	=3	=3	=3
1Im7	D:7	9.351	.	voice	1D 1f# 1a 1cc#
=4	=4	=4	=4	=4	=4
1V7	A:7	12.998	.	voice	1A 1cc# 1ee 1gg
=5	=5	=5	=5	=5	=5
*>B_chorus	*>B_chorus	*>B_chorus	*>B_chorus	*>B_chorus	*>B_chorus
1Im7	D:7	16.645	newline	voice	1D 1f# 1a 1cc#
=6	=6	=6	=6	=6	=6
2IVm7	G:7	20.276	.	voice	2G 2b 2dd 2ff#
2II7	E:7	22.091	.	voice	2E 2g# 2b 2dd
=7	=7	=7	=7	=7	=7
2IVm7	G:7	23.907	.	voice	2G 2b 2dd 2ff#
2II7	E:7	25.722	.	voice	2E 2g# 2b 2dd
=8	=8	=8	=8	=8	=8
2IVm7	G:7	27.537	.	voice	2G 2b 2dd 2ff#
2II7	E:7	29.353	.	voice	2E 2g# 2b 2dd
=9	=9	=9	=9	=9	=9
2IVm7	G:7	31.168	.	voice	2G 2b 2dd 2ff#
2II7	E:7	32.983	.	voice	2E 2g# 2b 2dd
=10	=10	=10	=10	=10	=10
2IVm7	G:7	34.799	.	voice	2G 2b 2dd 2ff#
2II7	E:7	36.614	.	voice	2E 2g# 2b 2dd
=11	=11	=11	=11	=11	=11
1Im7	D:7	38.429	newline	voice	1D 1f# 1a 1cc#
=12	=12	=12	=12	=12	=12
2IVm7	G:7	42.044	.	voice	2G 2b 2dd 2ff#
2II7	E:7	43.852	.	voice	2E 2g# 2b 2dd
=13	=13	=13	=13	=13	=13
2Im7	D:7	45.659	.	voice	2D 2f# 2a 2cc#
2V7	A:7	47.466	.	voice	2A 2cc# 2ee 2gg
=14	=14	=14	=14	=14	=14
2Im7	D:7	49.274	.	voice	2D 2f# 2a 2cc#
2V7	A:7	51.081	.	voice	2A 2cc# 2ee 2gg
=15	=15	=15	=15	=15	=15
*>A_verse	*>A_verse	*>A_verse	*>A_verse	*>A_verse	*>A_verse
1Im7	D:7	52.888	newline	voice	1D 1f# 1a 1cc#
=16	=16	=16	=16	=16	=16
1Im7	D:7	56.67	.	voice	1D 1f# 1a 1cc#
=17	=17	=17	=17	=17	=17
1Im7	D:7	60.452	.	voice	1D 1f# 1a 1cc#
=18	=18	=18	=18	=18	=18
1V7	A:7	64.234	.	voice	1A 1cc# 1ee 1gg
=19	=19	=19	=19	=19	=19
*>B_chorus	*>B_chorus	*>B_chorus	*>B_chorus	*>B_chorus	*>B_chorus
1Im7	D:7	68.016	newline	voice	1D 1f# 1a 1cc#
=20	=20	=20	=20	=20	=20
2IVm7	G:7	71.732	.	voice	2G 2b 2dd 2ff#
2II7	E:7	73.59	.	voice	2E 2g# 2b 2dd
=21	=21	=21	=21	=21	=21
2IVm7	G:7	75.448	.	voice	2G 2b 2dd 2ff#
2II7	E:7	77.306	.	voice	2E 2g# 2b 2dd
=22	=22	=22	=22	=22	=22
2IVm7	G:7	79.164	.	voice	2G 2b 2dd 2ff#
2II7	E:7	81.022	.	voice	2E 2g# 2b 2dd
=23	=23	=23	=23	=23	=23
2IVm7	G:7	82.88	.	voice	2G 2b 2dd 2ff#
2II7	E:7	84.738	.	voice	2E 2g# 2b 2dd
=24	=24	=24	=24	=24	=24
2IVm7	G:7	86.597	.	voice	2G 2b 2dd 2ff#
2II7	E:7	88.455	.	voice	2E 2g# 2b 2dd
=25	=25	=25	=25	=25	=25
1Im7	D:7	90.313	newline	voice	1D 1f# 1a 1cc#
=26	=26	=26	=26	=26	=26
2IVm7	G:7	93.942	.	voice	2G 2b 2dd 2ff#
2II7	E:7	95.756	.	voice	2E 2g# 2b 2dd
=27	=27	=27	=27	=27	=27
2Im7	D:7	97.571	.	voice	2D 2f# 2a 2cc#
2V7	A:7	99.386	.	voice	2A 2cc# 2ee 2gg
=28	=28	=28	=28	=28	=28
2Im7	D:7	101.2	.	voice	2D 2f# 2a 2cc#
2V7	A:7	103.015	.	voice	2A 2cc# 2ee 2gg
=29	=29	=29	=29	=29	=29
*>A_instrumental	*>A_instrumental	*>A_instrumental	*>A_instrumental	*>A_instrumental	*>A_instrumental
1Im7	D:7	104.829	newline	voice	1D 1f# 1a 1cc#
=30	=30	=30	=30	=30	=30
1Im7	D:7	108.562	.	voice	1D 1f# 1a 1cc#
=31	=31	=31	=31	=31	=31
1Im7	D:7	112.296	.	voice	1D 1f# 1a 1cc#
=32	=32	=32	=32	=32	=32
1V7	A:7	116.029	.	voice	1A 1cc# 1ee 1gg
=33	=33	=33	=33	=33	=33
*>B_	*>B_	*>B_	*>B_	*>B_	*>B_
1Im7	D:7	119.762	newline	voice	1D 1f# 1a 1cc#
=34	=34	=34	=34	=34	=34
2IVm7	G:7	123.443	.	voice	2G 2b 2dd 2ff#
2II7	E:7	125.283	.	voice	2E 2g# 2b 2dd
=35	=35	=35	=35	=35	=35
2IVm7	G:7	127.124	.	voice	2G 2b 2dd 2ff#
2II7	E:7	128.964	.	voice	2E 2g# 2b 2dd
=36	=36	=36	=36	=36	=36
2IVm7	G:7	130.805	.	voice	2G 2b 2dd 2ff#
2II7	E:7	132.645	.	voice	2E 2g# 2b 2dd
=37	=37	=37	=37	=37	=37
2IVm7	G:7	134.486	.	voice	2G 2b 2dd 2ff#
2II7	E:7	136.326	.	voice	2E 2g# 2b 2dd
=38	=38	=38	=38	=38	=38
2IVm7	G:7	138.167	.	voice	2G 2b 2dd 2ff#
2II7	E:7	140.007	.	voice	2E 2g# 2b 2dd
=39	=39	=39	=39	=39	=39
1Im7	D:7	141.847	newline	voice	1D 1f# 1a 1cc#
=40	=40	=40	=40	=40	=40
2IVm7	G:7	145.492	.	voice	2G 2b 2dd 2ff#
2II7	E:7	147.314	.	voice	2E 2g# 2b 2dd
=41	=41	=41	=41	=41	=41
2Im7	D:7	149.136	.	voice	2D 2f# 2a 2cc#
2V7	A:7	150.959	.	voice	2A 2cc# 2ee 2gg
=42	=42	=42	=42	=42	=42
2Im7	D:7	152.781	.	voice	2D 2f# 2a 2cc#
2V7	A:7	154.603	.	voice	2A 2cc# 2ee 2gg
=43	=43	=43	=43	=43	=43
*>C_outro_fadeout	*>C_outro_fadeout	*>C_outro_fadeout	*>C_outro_fadeout	*>C_outro_fadeout	*>C_outro_fadeout
2IVm7	G:7	156.425	newline	voice	2G 2b 2dd 2ff#
2II7	E:7	158.308	.	voice	2E 2g# 2b 2dd
=44	=44	=44	=44	=44	=44
2IVm7	G:7	160.191	.	voice	2G 2b 2dd 2ff#
2II7	E:7	162.074	.	voice	2E 2g# 2b 2dd
=45	=45	=45	=45	=45	=45
2IVm7	G:7	163.956	.	voice	2G 2b 2dd 2ff#
2II7	E:7	165.839	.	voice	2E 2g# 2b 2dd
=46	=46	=46	=46	=46	=46
2IVm7	G:7	167.722	.	voice	2G 2b 2dd 2ff#
2II7	E:7	169.605	.	voice	2E 2g# 2b 2dd
=47	=47	=47	=47	=47	=47
2IVm7	G:7	171.487	newline	voice	2G 2b 2dd 2ff#
2II7	E:7	172.979	.	voice	2E 2g# 2b 2dd
=48	=48	=48	=48	=48	=48
2IVm7	G:7	174.471	.	voice	2G 2b 2dd 2ff#
2II7	E:7	175.963	.	voice	2E 2g# 2b 2dd
1r;	N	177.454	.	r	1r;
1r;	N	179.259	.	r	1r;
*-	*-	*-	*-	*-	*-
!!!OTL: Baby, You're Right
!!!COC: James Brown
!!!BillboardChartDate: 1961/08/28
!!!BillboardPeak: 49
!!!BillboardWeeksOnChart: 4
!!!SampleTargetRank: 65
!!!SampleActualRank: 65
!!!SampleID#: 0533
!!!RDF**harmony: **recip + pitch class of root + harmonic quality
!!!RDF**harte: Chris Harte's syntax, used by MIREX
!!!RDF**phrase: newline = linebreak in original McGill transcription
!!!RDF**timestamp: McGill audio timestamp in seconds
!!!RDF**leadinstrument: original McGill primary instrumentation annotation
!!!RDT: 2017/01/12/
!!!ENC: Nathaniel Condit-Schultz
!!!EST: Awating manual error checking and editing.
